X:1
T:Туман яром, туман долиною
T:Туман яром, туман долиною
%%score ( 1 2 )
L:1/8
Q:1/4=90
M:6/4
K:D
V:1 treble nm="Голос" snm="Го."
V:2 treble 
V:1
 B,2 D2 F4 (D2 B,2) | G2 G2 G2 F2 E2 (DE) | F2 A2 B4 !fermata!B4 | F2 A2 (G4 F2) F2 | E4 B8 :| %5
w: Ту- ман я- ром- (ы),|ту- ман до- ли- но- ю, *|ту- ман я- ром,|ту- ман до- * ли-|но- ю.|
w: За ту- ма- ном- (ы)|ни- че- го не вид- но, *|за ту- ма- ном|ни- че- го * не|вид- но.|
w: Толь- ко вид- но _|ду- ба зе- ле- но- го, *|толь- ко вид- но|ду- ба зе- * ле-|но- го.|
w: Под тем ду- бом- (ы)|кры- ни- ца сто- я- ла, *|в той кры- ни- це|дев- ка во- * ду|бра- ла.|
w: У- ро- ни- ла _|в кры- ни- цу ве- дер- це, *|да сму- ти- ла|ка- за- ко- * во|серд- це.|
w: А кто ж то- е _|ве- дер- це дос- та- нет, *|тот со мно- ю|на руш- ни- * чёк|ста- нет.|
w: Ту- ман я- ром- (ы),|ту- ман до- ли- но- ю, *|ту- ман я- ром.|||
V:2
 B,2 D2 F4 (D2 B,2) | E2 E2 E2 D2 C2 B,C | D2 C2 B,4 B,4 | B,2 B,2 (E4 D2) D2 | C4 B,8 :| %5

